web/public/images/svg/changa_printer.svg

<svg id="icons" xmlns="http://www.w3.org/2000/svg" viewBox="0 0 64 64"><title>changa_printer</title><g id="_Group_" data-name="&lt;Group&gt;"><rect id="_Path_" data-name="&lt;Path&gt;" x="22.29" y="47.97" width="19.42" height="1.09"/><rect id="_Path_2" data-name="&lt;Path&gt;" x="22.29" y="41.68" width="19.42" height="1.09"/><rect id="_Path_3" data-name="&lt;Path&gt;" x="22.29" y="44.82" width="19.42" height="1.09"/><path id="_Compound_Path_" data-name="&lt;Compound Path&gt;" d="M63,21.12H50.58V18.19a1,1,0,0,0-1-1H46.94V10H17.06v7.16H14.42a1,1,0,0,0-1,1v2.93H1a1,1,0,0,0-1,1v21.1a1,1,0,0,0,1,1H17.06v9.54H47V44.23H63a1,1,0,0,0,1-1V22.12A1,1,0,0,0,63,21.12ZM45.59,52.44H18.41V38.31H45.59ZM23,29.75V27.17H41v2.58Zm22.57-5.16H18.41v-13H45.59Z"/></g></svg>

<?xml version="1.0" encoding="utf-8"?>
<!-- Generator: Adobe Illustrator 21.0.2, SVG Export Plug-In . SVG Version: 6.00 Build 0)  -->
<svg version="1.1" id="icons" xmlns="http://www.w3.org/2000/svg" xmlns:xlink="http://www.w3.org/1999/xlink" x="0px" y="0px"
	 viewBox="0 0 64 64" style="enable-background:new 0 0 64 64;" xml:space="preserve">
<style type="text/css">
	.st0{stroke:#FFFFFF;stroke-width:0;stroke-linecap:round;stroke-linejoin:round;}
	.st1{fill:none;stroke:#000000;stroke-width:1.5;stroke-miterlimit:10;}
</style>
<g id="XMLID_322_">
	<rect id="XMLID_324_" x="22.3" y="48" width="19.4" height="1.1"/>
	<rect id="XMLID_328_" x="22.3" y="41.7" width="19.4" height="1.1"/>
	<rect id="XMLID_329_" x="22.3" y="44.8" width="19.4" height="1.1"/>
	<path id="XMLID_337_" d="M63,21.1H50.6v-2.9c0-0.5-0.5-1-1-1h-2.6V10H17.1v7.2h-2.6c-0.5,0-1,0.5-1,1v2.9H1c-0.5,0-1,0.4-1,1v21.1
		c0,0.5,0.5,1,1,1h16.1v9.5H47v-9.5h16c0.5,0,1-0.5,1-1V22.1C64,21.6,63.5,21.1,63,21.1z M45.6,52.4H18.4V38.3h27.2V52.4z M23,29.8
		v-2.6h18v2.6H23z M45.6,24.6H18.4v-13h27.2V24.6z"/>
</g>
</svg>
